icon_installer/data/icons/scalable/actions/show-video-camera-symbolic.svg

<?xml version="1.0" encoding="UTF-8"?>
<svg height="16px" viewBox="0 0 16 16" width="16px" xmlns="http://www.w3.org/2000/svg">
    <path d="m 6.5 1 c -1.921875 0 -3.5 1.578125 -3.5 3.5 c 0 0.941406 0.386719 1.789062 1 2.417969 v 1.882812 l -2.445312 -1.632812 c -0.164063 -0.109375 -0.359376 -0.164063 -0.554688 -0.167969 h -1 v 6 h 1 v -0.003906 c 0.1875 0.003906 0.378906 -0.046875 0.554688 -0.164063 l 2.445312 -1.632812 v 1.800781 c 0 0.832031 0.5625 1.523438 1.050781 1.769531 c 0.492188 0.246094 0.949219 0.230469 0.949219 0.230469 h 7 s 0.457031 0.015625 0.949219 -0.230469 c 0.488281 -0.246093 1.050781 -0.9375 1.050781 -1.769531 v -2 l 1 -1 v -2 h -1 v -1.082031 c 0.613281 -0.628907 1 -1.476563 1 -2.417969 c 0 -1.921875 -1.578125 -3.5 -3.5 -3.5 c -1.277344 0 -2.386719 0.703125 -3 1.734375 c -0.613281 -1.03125 -1.722656 -1.734375 -3 -1.734375 z m 0 2 c 0.839844 0 1.5 0.660156 1.5 1.5 s -0.660156 1.5 -1.5 1.5 s -1.5 -0.660156 -1.5 -1.5 s 0.660156 -1.5 1.5 -1.5 z m 6 0 c 0.839844 0 1.5 0.660156 1.5 1.5 s -0.660156 1.5 -1.5 1.5 s -1.5 -0.660156 -1.5 -1.5 s 0.660156 -1.5 1.5 -1.5 z m 0 0" fill="#222222"/>
</svg>

<svg xmlns="http://www.w3.org/2000/svg" width="16" height="16"><path fill="#222" d="M6.5 1A3.514 3.514 0 0 0 3 4.5c0 .941.387 1.79 1 2.418v1.883L1.555 7.168A1.038 1.038 0 0 0 1 7H0v6h1v-.004a.955.955 0 0 0 .555-.164L4 11.199V13c0 .832.563 1.523 1.05 1.77.493.246.95.23.95.23h7s.457.016.95-.23c.488-.247 1.05-.938 1.05-1.77v-2l1-1V8h-1V6.918c.613-.629 1-1.477 1-2.418C16 2.578 14.422 1 12.5 1c-1.277 0-2.387.703-3 1.734C8.887 1.704 7.777 1 6.5 1zm0 2C7.34 3 8 3.66 8 4.5S7.34 6 6.5 6 5 5.34 5 4.5 5.66 3 6.5 3zm6 0c.84 0 1.5.66 1.5 1.5S13.34 6 12.5 6 11 5.34 11 4.5 11.66 3 12.5 3zm0 0"/></svg>
